src/svg/file_type_markdown.svg

<svg xmlns="http://www.w3.org/2000/svg" fill="none" viewBox="0 0 16 16">
  <path fill="#BD733D" fill-rule="evenodd" d="M8.87005 10.7094h-1.7401V8.00127l-1.3156 1.73195-1.31559-1.73195v2.70813h-1.7401V5.29312h1.7401l1.31559 1.81223 1.3156-1.81223h1.7401v5.41628zm2.61135.4372L9.3156 8h1.3156V5.29184h1.7401V8h1.3156l-2.2042 3.1466h-.0013zM13.995 3.5H2.00495c-.27063 0-.50578.1028-.70545.30841C1.09983 4.01402 1 4.25616 1 4.53483v6.93037c0 .2922.09983.5378.2995.7366.19967.1988.43482.2982.70545.2982H13.995c.2707 0 .5058-.0994.7055-.2982.1997-.1988.2995-.4444.2995-.7366V4.53483c0-.27867-.0998-.52081-.2995-.72642C14.5008 3.6028 14.2657 3.5 13.995 3.5z" clip-rule="evenodd"/>
</svg>

<svg width="16" height="16" viewBox="0 0 16 16" fill="none" xmlns="http://www.w3.org/2000/svg">
<g id="markdown">
<path id="Shape" fill-rule="evenodd" clip-rule="evenodd" d="M8.87005 10.7094H7.12995V8.00127L5.81435 9.73322L4.49876 8.00127V10.7094H2.75866V5.29312H4.49876L5.81435 7.10535L7.12995 5.29312H8.87005V10.7094ZM11.4814 11.1466L9.3156 8H10.6312V5.29184H12.3713V8H13.6869L11.4827 11.1466H11.4814ZM13.995 3.5H2.00495C1.73432 3.5 1.49917 3.6028 1.2995 3.80841C1.09983 4.01402 1 4.25616 1 4.53483V11.4652C1 11.7574 1.09983 12.003 1.2995 12.2018C1.49917 12.4006 1.73432 12.5 2.00495 12.5H13.995C14.2657 12.5 14.5008 12.4006 14.7005 12.2018C14.9002 12.003 15 11.7574 15 11.4652V4.53483C15 4.25616 14.9002 4.01402 14.7005 3.80841C14.5008 3.6028 14.2657 3.5 13.995 3.5V3.5V3.5Z" fill="#BD733D"/>
</g>
</svg>
